X:178
T: ZWEI LIEBTEN SICH AUS REINEM SINN
N: E0093G
O: Europa, Mitteleuropa, Deutschland, Oberlahnkreis; Westerwald
R: erzaehlendes Volks - Lied, Sage, Liebe, Leid, Tod
M: 3/4
L: 1/16
K: G
D2E2F2 | G4B4A2GB | A4z2
G2F2G2 | A4e4d2dc | B4z2
d2d2d2 | c3BA2d2d2c2 | B3AG2
G2F2G2 | A4e4d2dc | B4z2

